resources/svg/idea-alt.svg

<svg viewBox="0 0 1200 1200"><path d="M600 0C268.629 0 0 268.629 0 600s268.629 600 600 600s600-268.629 600-600S931.371 0 600 0zm-20.361 221.777h40.723v120.044h-40.723V221.777zm-166.553 36.035l68.848 98.291l-33.398 23.438l-68.848-98.291l33.398-23.438zm373.828 0l33.398 23.438l-68.848 98.291l-33.398-23.438l68.848-98.291zM600 374.634c99.754 0 180.615 60.549 180.615 135.278L678.003 820.679H521.997L419.385 509.912c0-74.73 80.867-135.278 180.615-135.278zm-324.39 36.035l112.793 41.089l-13.989 38.306l-112.72-41.089l13.916-38.306zm648.78 0l13.916 38.306l-112.793 41.089l-13.916-38.306l112.793-41.089zM382.983 585.938l10.547 39.404l-115.942 31.055l-10.547-39.404l115.942-31.055zm434.034 0l115.942 31.055l-10.547 39.404l-115.942-31.055l10.547-39.404zm-297.29 257.446h160.547v53.979H519.727v-53.979zm0 80.859h160.547v53.979H519.727v-53.979z" fill="currentColor"/></svg>

<svg xmlns="http://www.w3.org/2000/svg" docname="idea-alt.svg" version="0.48.4 r9939" x="0px" y="0px" viewBox="0 0 1200 1200" enable-background="new 0 0 1200 1200" xml:space="preserve" fill="currentColor"><path id="path12158" connector-curvature="0" d="M600,0C268.629,0,0,268.629,0,600s268.629,600,600,600 s600-268.629,600-600S931.371,0,600,0z M579.639,221.777h40.723v120.044h-40.723V221.777L579.639,221.777z M413.086,257.812 l68.848,98.291l-33.398,23.438l-68.848-98.291L413.086,257.812L413.086,257.812z M786.914,257.812l33.398,23.438l-68.848,98.291 l-33.398-23.438L786.914,257.812z M600,374.634c99.754,0,180.615,60.549,180.615,135.278L678.003,820.679H521.997L419.385,509.912 C419.385,435.182,500.252,374.634,600,374.634z M275.61,410.669l112.793,41.089l-13.989,38.306l-112.72-41.089L275.61,410.669z M924.39,410.669l13.916,38.306l-112.793,41.089l-13.916-38.306L924.39,410.669z M382.983,585.938l10.547,39.404l-115.942,31.055 l-10.547-39.404L382.983,585.938z M817.017,585.938l115.942,31.055l-10.547,39.404L806.47,625.342L817.017,585.938z M519.727,843.384h160.547v53.979H519.727V843.384z M519.727,924.243h160.547v53.979H519.727V924.243z"/></svg>
